svgs/sharp-regular/sidebar-flip.svg

<svg xmlns="http://www.w3.org/2000/svg" viewBox="0 0 512 512"><!--! Font Awesome Pro 6.6.0 by @fontawesome - https://fontawesome.com License - https://fontawesome.com/license (Commercial License) Copyright 2024 Fonticons, Inc. --><path d="M288 80l0 352L48 432 48 80l240 0zM512 32l-48 0L48 32 0 32 0 80 0 432l0 48 48 0 416 0 48 0 0-48 0-352 0-48zM448 96l0 48-96 0 0-48 96 0zm-96 96l96 0 0 48-96 0 0-48zm96 96l0 48-96 0 0-48 96 0z"/></svg>

<svg xmlns="http://www.w3.org/2000/svg" viewBox="0 0 512 512"><!--! Font Awesome Pro 6.4.2 by @fontawesome - https://fontawesome.com License - https://fontawesome.com/license (Commercial License) Copyright 2023 Fonticons, Inc. --><path d="M288 80V432H48V80H288zM512 32H464 48 0V80 432v48H48 464h48V432 80 32zM448 96v48H352V96h96zm-96 96h96v48H352V192zm96 96v48H352V288h96z"/></svg>
